lib/preview/nrk-logo-preview-nrk-buskerud-title-right.svg

<svg width="110" height="24" viewBox="0 0 110 24" fill="none" xmlns="http://www.w3.org/2000/svg">
<path d="M0 17.9976V5.99865H4V17.9976H0ZM9.24381 7.90834L11.5081 17.9976H7.19917L4.49549 5.99865H6.91217C7.46635 5.99146 8.00406 6.18681 8.4245 6.54795C8.84562 6.89394 9.08495 7.37426 9.24381 7.90834ZM12 17.9976V5.99865H16V17.9976H12ZM19.0105 10.5617C18.5862 10.5658 18.1687 10.4548 17.8025 10.2405C17.4412 10.0317 17.1411 9.73152 16.9323 9.37016C16.7178 9.00389 16.6068 8.58632 16.611 8.16188C16.6061 7.74002 16.7172 7.32494 16.9323 6.96199C17.1433 6.60455 17.4431 6.30765 17.8025 6.10008C18.1689 5.88606 18.5862 5.77507 19.0105 5.77894C19.4322 5.7744 19.8471 5.88549 20.2102 6.10008C20.566 6.30947 20.8626 6.60612 21.072 6.96199C21.2868 7.32504 21.3979 7.74005 21.3933 8.16188C21.3973 8.58629 21.2863 9.00379 21.072 9.37016C20.8649 9.72993 20.5679 10.0298 20.2102 10.2405C19.8471 10.4555 19.4324 10.5666 19.0105 10.5617ZM22 17.9976V5.99865H26V17.9976H22ZM30.9737 12.5558C30.9848 12.5674 31.0693 12.7054 31.2272 12.9698C31.3851 13.2342 31.5906 13.5722 31.8439 13.9838C32.0974 14.3953 32.3649 14.8318 32.6463 15.2936C32.9278 15.7553 33.1926 16.1919 33.4408 16.6033C33.6881 17.0147 33.9697 17.4795 34.2857 17.9976H29.9598C29.6893 17.5582 29.4441 17.161 29.2245 16.8061C29.0048 16.4512 28.7713 16.0681 28.5238 15.6569C28.2758 15.2461 28.0306 14.8461 27.7882 14.457C27.5458 14.0679 27.3375 13.7272 27.1633 13.4346C26.9883 13.1419 26.8671 12.9447 26.7997 12.8431C26.6325 12.591 26.5336 12.2999 26.5127 11.9981C26.5294 11.7085 26.6226 11.4285 26.7828 11.1867C26.8503 11.074 26.9743 10.874 27.1545 10.5867C27.3348 10.2994 27.546 9.95861 27.7882 9.56428C28.0304 9.16995 28.2756 8.76716 28.5238 8.35593C28.772 7.9447 29.0055 7.55879 29.2245 7.19826C29.4445 6.83811 29.6897 6.43814 29.9598 5.99837H34.2857L30.9396 11.4571C30.8361 11.6191 30.7777 11.8059 30.7706 11.9981C30.7818 12.1999 30.8528 12.3939 30.9737 12.5558Z" fill="white"/>
<g clip-path="url(#clip0_5919_3022)">
<path d="M45.0941 11.6219V11.5711C45.6922 11.3792 46.138 11.0633 46.4314 10.6231C46.7249 10.183 46.8716 9.66387 46.8716 9.06574C46.8716 8.51276 46.7446 8.00209 46.4907 7.53375C46.2368 7.0654 45.7995 6.69299 45.1788 6.41649C44.5581 6.14 43.6947 6.00175 42.5888 6.00175H39V18.0207H42.7411C43.6778 18.0207 44.5016 17.9022 45.2126 17.6652C45.9236 17.4282 46.4766 17.0502 46.8716 16.531C47.2666 16.0119 47.4641 15.3348 47.4641 14.4997C47.4641 13.7774 47.2553 13.1652 46.8377 12.663C46.4202 12.1608 45.839 11.8137 45.0941 11.6219ZM42.6057 7.45757C43.2715 7.45757 43.7822 7.53939 44.1377 7.70303C44.4932 7.86667 44.7443 8.08673 44.891 8.36323C45.0377 8.63972 45.111 8.95289 45.111 9.30274C45.111 9.65258 45.0518 9.96857 44.9333 10.2169C44.8148 10.4651 44.6512 10.6626 44.4424 10.8093C44.2336 10.956 44.0023 11.0633 43.7483 11.131C43.4944 11.1987 43.232 11.2325 42.9612 11.2325H40.7775V7.45757H42.6057ZM45.3311 15.6931C45.1167 15.9922 44.7894 16.2122 44.3493 16.3533C43.9092 16.4944 43.3562 16.5649 42.6903 16.5649H40.7775V12.6545H43.0458C43.6101 12.6545 44.0841 12.7166 44.4678 12.8407C44.8515 12.9648 45.1449 13.1623 45.348 13.4332C45.5512 13.704 45.6527 14.0765 45.6527 14.5504C45.6527 15.0244 45.5455 15.394 45.3311 15.6931ZM55.251 9.47202L56.9776 9.21809L56.9607 18.0207H55.6234L55.3723 16.9768C55.3215 17.0191 55.2736 17.0671 55.2228 17.1066C54.9463 17.3323 54.6585 17.527 54.3594 17.6906C54.0604 17.8542 53.7472 17.9784 53.4199 18.063C53.0926 18.1477 52.7428 18.19 52.3704 18.19C51.7384 18.19 51.1995 18.0715 50.7537 17.8345C50.308 17.5975 49.9751 17.2307 49.755 16.7342C49.5349 16.2376 49.4249 15.6113 49.4249 14.8552V9.47202L51.1516 9.21809V14.5504C51.1516 15.0019 51.2164 15.3827 51.3462 15.6931C51.476 16.0034 51.6763 16.2348 51.9472 16.3871C52.218 16.5395 52.5622 16.6157 52.9798 16.6157C53.2055 16.6157 53.4227 16.5959 53.6315 16.5564C53.8403 16.5169 54.0463 16.4605 54.2494 16.3871C54.4525 16.3138 54.6585 16.2263 54.8673 16.1248C54.9942 16.0627 55.1212 15.9922 55.2482 15.9132V9.47202H55.251ZM65.3655 14.762C65.4614 15.0047 65.5094 15.2953 65.5094 15.6338C65.5094 16.0853 65.4163 16.4746 65.2301 16.8019C65.0439 17.1292 64.7871 17.3944 64.4599 17.5975C64.1326 17.8006 63.7489 17.9502 63.3088 18.0461C62.8686 18.142 62.4003 18.19 61.9037 18.19C61.6893 18.19 61.4777 18.1843 61.2689 18.1731C61.0601 18.1618 60.8457 18.1336 60.6257 18.0884C60.4056 18.0433 60.1742 17.9897 59.9316 17.9276C59.689 17.8655 59.4209 17.7837 59.1275 17.6821L59.0598 16.2433C59.3194 16.3335 59.5761 16.4154 59.83 16.4887C60.084 16.5621 60.3322 16.6241 60.5749 16.6749C60.8175 16.7257 61.0489 16.7652 61.2689 16.7934C61.489 16.8216 61.6893 16.8357 61.8699 16.8357C62.2084 16.8357 62.5272 16.8019 62.8263 16.7342C63.1254 16.6665 63.368 16.5508 63.5542 16.3871C63.7404 16.2235 63.8335 16.0006 63.8335 15.7185C63.8335 15.5831 63.8081 15.4589 63.7574 15.3461C63.7066 15.2332 63.6332 15.1345 63.5373 15.0498C63.4414 14.9652 63.3257 14.8862 63.1903 14.8128C63.0548 14.7395 62.9081 14.6746 62.7501 14.6182C62.6373 14.5843 62.5216 14.5476 62.4031 14.5081C62.2846 14.4686 62.1633 14.4291 62.0392 14.3896C61.915 14.3501 61.788 14.3106 61.6583 14.2711C61.5285 14.2316 61.3959 14.1893 61.2605 14.1442C61.125 14.099 60.9952 14.0539 60.8711 14.0087C60.6454 13.9185 60.4338 13.8084 60.2363 13.6786C60.0388 13.5489 59.8667 13.3993 59.72 13.2301C59.5733 13.0608 59.4548 12.8548 59.3645 12.6122C59.2742 12.3695 59.2291 12.0902 59.2291 11.7742C59.2291 11.3341 59.3137 10.9532 59.483 10.6316C59.6523 10.31 59.8921 10.0448 60.2025 9.83597C60.5128 9.62719 60.8768 9.46919 61.2943 9.36198C61.7119 9.25477 62.1746 9.20117 62.6824 9.20117C62.8856 9.20117 63.0915 9.20963 63.3003 9.22656C63.5091 9.24349 63.7207 9.27452 63.9351 9.31966C64.1495 9.36481 64.3611 9.42123 64.5699 9.48894C64.7787 9.55666 64.9903 9.63565 65.2047 9.72594L65.0862 11.0971C64.9395 11.0294 64.7759 10.9673 64.5953 10.9109C64.4147 10.8545 64.237 10.8037 64.0621 10.7586C63.8871 10.7134 63.7122 10.6767 63.5373 10.6485C63.3624 10.6203 63.2015 10.6006 63.0548 10.5893C62.9081 10.578 62.7727 10.5723 62.6486 10.5723C62.3664 10.5723 62.1153 10.5949 61.8953 10.6401C61.6752 10.6852 61.4862 10.7529 61.3282 10.8432C61.1702 10.9335 61.0517 11.0435 60.9727 11.1733C60.8937 11.3031 60.8542 11.4582 60.8542 11.6388C60.8542 11.7968 60.8909 11.9379 60.9642 12.062C61.0376 12.1862 61.1335 12.2934 61.252 12.3837C61.3705 12.4739 61.5031 12.5586 61.6498 12.6376C61.7852 12.7053 61.9348 12.7674 62.0984 12.8238C62.262 12.8802 62.4313 12.9338 62.6062 12.9846C62.7812 13.0354 62.9561 13.0918 63.131 13.1539C63.3059 13.2159 63.4837 13.2752 63.6642 13.3316C63.9125 13.4219 64.1495 13.5319 64.3752 13.6617C64.6009 13.7915 64.7984 13.9467 64.9677 14.1272C65.137 14.3078 65.2696 14.5194 65.3655 14.762ZM70.901 13.3937L75.0061 18.0207H72.7716L69.3126 13.8733H69.2844V18.0207H67.5577V5.49391L69.2844 5.23999V12.5699H69.9079L72.8054 9.38738H74.9214L70.901 13.3937ZM82.4883 10.4792C82.161 10.056 81.7463 9.73722 81.2441 9.5228C80.7419 9.30838 80.1692 9.20117 79.5259 9.20117C78.8826 9.20117 78.3071 9.31402 77.7992 9.53973C77.2914 9.76544 76.8597 10.0814 76.5042 10.4877C76.1487 10.894 75.8779 11.3821 75.6917 11.952C75.5055 12.5219 75.4123 13.1567 75.4123 13.8564C75.4123 14.7818 75.5788 15.569 75.9117 16.2179C76.2447 16.8668 76.7384 17.3577 77.3929 17.6906C78.0475 18.0235 78.8488 18.19 79.7967 18.19C80.2481 18.19 80.646 18.1646 80.9902 18.1138C81.3344 18.063 81.6588 17.9869 81.9635 17.8853C82.2682 17.7837 82.5729 17.6539 82.8776 17.4959L82.9961 16.1925C82.7817 16.2715 82.5645 16.3505 82.3444 16.4295C82.1243 16.5085 81.8958 16.579 81.6588 16.6411C81.4218 16.7031 81.1792 16.7483 80.9309 16.7765C80.6826 16.8047 80.4344 16.8188 80.1861 16.8188C79.6782 16.8188 79.2381 16.7709 78.8657 16.6749C78.4933 16.579 78.1801 16.4154 77.9262 16.184C77.6723 15.9527 77.4804 15.6395 77.3506 15.2445C77.249 14.9313 77.187 14.5589 77.1672 14.1272H83.2839C83.3629 13.3373 83.3319 12.6376 83.1908 12.0282C83.0498 11.4187 82.8156 10.9024 82.4883 10.4792ZM78.2224 10.8855C78.5836 10.6542 79.0237 10.5385 79.5428 10.5385C80.0619 10.5385 80.519 10.6654 80.8463 10.9194C81.1736 11.1733 81.4021 11.526 81.5319 11.9774C81.6165 12.268 81.6532 12.5868 81.656 12.9253H77.2039C77.2462 12.5473 77.3139 12.2115 77.4183 11.9351C77.5933 11.4667 77.8613 11.1169 78.2224 10.8855ZM89.9705 9.23502L89.7674 10.8263C89.553 10.815 89.347 10.8206 89.1495 10.8432C88.952 10.8658 88.763 10.9024 88.5824 10.9532C88.4019 11.004 88.2241 11.0633 88.0492 11.131C87.8743 11.1987 87.6993 11.2805 87.5244 11.3764C87.389 11.4498 87.2564 11.5344 87.1266 11.6247V18.0207H85.3999V9.47202L87.1266 9.21809V10.4792C87.1661 10.4369 87.2056 10.3918 87.2451 10.3523C87.4934 10.104 87.7586 9.8924 88.0407 9.71747C88.3229 9.54255 88.6219 9.41277 88.9379 9.32813C89.2539 9.24349 89.5981 9.21245 89.9705 9.23502ZM97.2496 9.47202L98.9763 9.21809L98.9593 18.0207H97.622L97.3709 16.9768C97.3201 17.0191 97.2722 17.0671 97.2214 17.1066C96.9449 17.3323 96.6571 17.527 96.3581 17.6906C96.059 17.8542 95.7458 17.9784 95.4185 18.063C95.0913 18.1477 94.7414 18.19 94.369 18.19C93.737 18.19 93.1981 18.0715 92.7524 17.8345C92.3066 17.5975 91.9737 17.2307 91.7536 16.7342C91.5335 16.2376 91.4235 15.6113 91.4235 14.8552V9.47202L93.1502 9.21809V14.5504C93.1502 15.0019 93.2151 15.3827 93.3449 15.6931C93.4746 16.0034 93.675 16.2348 93.9458 16.3871C94.2167 16.5395 94.5609 16.6157 94.9784 16.6157C95.2041 16.6157 95.4214 16.5959 95.6301 16.5564C95.8389 16.5169 96.0449 16.4605 96.248 16.3871C96.4512 16.3138 96.6571 16.2263 96.8659 16.1248C96.9929 16.0627 97.1198 15.9922 97.2468 15.9132V9.47202H97.2496ZM107.542 5.49391V9.61308C107.525 9.60744 107.508 9.59898 107.491 9.59051C107.198 9.47766 106.873 9.38455 106.518 9.3112C106.162 9.23784 105.77 9.20117 105.341 9.20117C104.585 9.20117 103.883 9.38738 103.234 9.75979C102.585 10.1322 102.063 10.6711 101.668 11.3764C101.273 12.0818 101.075 12.9423 101.075 13.958C101.075 14.8269 101.225 15.5774 101.524 16.2094C101.823 16.8414 102.252 17.3295 102.81 17.6737C103.369 18.0179 104.038 18.19 104.816 18.19C105.268 18.19 105.694 18.1336 106.095 18.0207C106.495 17.9079 106.887 17.7329 107.271 17.4959C107.398 17.4169 107.525 17.3295 107.652 17.2392L107.864 18.0207H109.269V5.25692L107.542 5.49391ZM106.636 16.5734C106.19 16.737 105.787 16.8188 105.426 16.8188C104.884 16.8188 104.421 16.7088 104.038 16.4887C103.654 16.2687 103.361 15.9301 103.158 15.473C102.954 15.016 102.853 14.4432 102.853 13.7548C102.853 13.0664 102.966 12.4711 103.191 12.0028C103.417 11.5344 103.742 11.1789 104.165 10.9363C104.588 10.6937 105.093 10.5723 105.68 10.5723C105.962 10.5723 106.233 10.5921 106.492 10.6316C106.752 10.6711 107.014 10.7332 107.28 10.8178C107.361 10.8432 107.454 10.8799 107.542 10.9109V16.1276C107.223 16.3166 106.921 16.469 106.636 16.5734Z" fill="white"/>
</g>
<defs>
<clipPath id="clip0_5919_3022">
<rect width="71" height="14" fill="white" transform="translate(39 5)"/>
</clipPath>
</defs>
</svg>

<svg xmlns="http://www.w3.org/2000/svg" viewBox="0 0 110 24"><path fill="#fff" d="M0 17.998v-12h4v12H0Zm9.244-10.09 2.264 10.09H7.2l-2.704-12h2.417a2.276 2.276 0 0 1 1.513.55c.42.346.66.826.819 1.36ZM12 17.998v-12h4v12h-4Zm7.01-7.436a2.381 2.381 0 0 1-2.078-1.192 2.345 2.345 0 0 1-.321-1.208 2.301 2.301 0 0 1 .321-1.2A2.41 2.41 0 0 1 20.21 6.1c.356.21.653.506.862.862.215.363.326.778.321 1.2a2.35 2.35 0 0 1-.321 1.208 2.4 2.4 0 0 1-.862.87 2.301 2.301 0 0 1-1.2.322ZM22 17.998v-12h4v12h-4Zm8.974-5.442c.01.011.095.15.253.414s.364.602.617 1.014a316.22 316.22 0 0 1 1.597 2.62c.247.41.529.876.845 1.394H29.96c-.27-.44-.516-.837-.736-1.192-.22-.355-.453-.738-.7-1.15-.248-.41-.493-.81-.736-1.199-.242-.39-.45-.73-.625-1.022a18.04 18.04 0 0 0-.363-.592 1.747 1.747 0 0 1-.287-.845c.016-.29.11-.57.27-.811.067-.113.191-.313.371-.6a182.106 182.106 0 0 0 1.37-2.23l.7-1.159.736-1.2h4.326l-3.346 5.46a1.079 1.079 0 0 0-.17.54c.012.202.083.396.204.558Z"/><g clip-path="url(#a)"><path fill="#fff" d="M45.094 11.622v-.05c.598-.193 1.044-.509 1.337-.949.294-.44.44-.96.44-1.557 0-.553-.126-1.064-.38-1.532-.254-.469-.691-.841-1.312-1.118-.62-.276-1.484-.414-2.59-.414H39V18.02h3.741c.937 0 1.76-.119 2.472-.356.71-.237 1.264-.615 1.659-1.134.395-.52.592-1.196.592-2.031 0-.723-.209-1.335-.626-1.837-.418-.502-.999-.85-1.744-1.041Zm-2.488-4.164c.666 0 1.176.081 1.532.245.355.164.606.384.753.66.147.277.22.59.22.94s-.06.666-.178.914a1.494 1.494 0 0 1-.49.592c-.21.147-.44.254-.695.322a3.042 3.042 0 0 1-.787.101h-2.183V7.458h1.828Zm2.725 8.235c-.214.3-.542.52-.982.66-.44.141-.993.212-1.659.212h-1.912v-3.91h2.268c.564 0 1.038.062 1.422.186.383.124.677.321.88.592.203.271.305.643.305 1.117s-.108.844-.322 1.143Zm9.92-6.221 1.727-.254-.017 8.803h-1.338l-.25-1.044c-.051.042-.1.09-.15.13-.277.225-.565.42-.864.584a4.075 4.075 0 0 1-.94.372 4.176 4.176 0 0 1-1.049.127c-.632 0-1.17-.119-1.616-.356-.446-.236-.779-.603-.999-1.1-.22-.496-.33-1.123-.33-1.879V9.472l1.727-.254v5.332c0 .452.064.833.194 1.143.13.31.33.542.601.694.271.152.615.229 1.033.229a3.5 3.5 0 0 0 .652-.06c.208-.04.414-.096.617-.169.203-.073.41-.16.618-.262a4.3 4.3 0 0 0 .381-.212V9.472h.003Zm10.114 5.29c.096.243.144.533.144.872 0 .451-.093.84-.279 1.168a2.213 2.213 0 0 1-.77.796 3.633 3.633 0 0 1-1.151.448 6.59 6.59 0 0 1-1.405.144c-.215 0-.426-.006-.635-.017a4.369 4.369 0 0 1-.643-.085c-.22-.045-.452-.098-.694-.16-.243-.063-.511-.144-.805-.246l-.067-1.439c.26.09.516.172.77.246.254.073.502.135.745.186.242.05.474.09.694.118a4.324 4.324 0 0 0 1.557-.06c.3-.066.542-.182.728-.346.186-.163.28-.386.28-.668a.866.866 0 0 0-.296-.669 1.869 1.869 0 0 0-.348-.237 3.148 3.148 0 0 0-.44-.195c-.113-.034-.228-.07-.347-.11a28.154 28.154 0 0 0-.745-.237 15.994 15.994 0 0 1-.787-.262c-.226-.09-.437-.2-.635-.33a2.48 2.48 0 0 1-.516-.449 1.996 1.996 0 0 1-.355-.618 2.395 2.395 0 0 1-.136-.838c0-.44.085-.82.254-1.142.17-.322.41-.587.72-.796.31-.209.674-.367 1.091-.474.418-.107.88-.16 1.388-.16.204 0 .41.008.618.025.21.016.42.048.635.093.215.045.426.101.635.169.209.068.42.147.635.237l-.119 1.371a4.066 4.066 0 0 0-.49-.186c-.181-.056-.359-.107-.534-.152a5.77 5.77 0 0 0-1.007-.17 5.318 5.318 0 0 0-.406-.017c-.283 0-.534.023-.754.068-.22.045-.409.113-.567.203a.962.962 0 0 0-.355.33.878.878 0 0 0-.119.466c0 .158.037.299.11.423.074.124.17.231.288.322.118.09.251.175.398.254a3.7 3.7 0 0 0 .448.186c.164.056.333.11.508.16.175.051.35.108.525.17.175.062.353.121.533.178.248.09.486.2.711.33.226.13.423.285.593.465.169.18.302.392.397.635Zm5.536-1.368 4.105 4.627h-2.234l-3.46-4.148h-.028v4.148h-1.726V5.494l1.726-.254v7.33h.624l2.897-3.183h2.116l-4.02 4.007Zm11.587-2.915a3.068 3.068 0 0 0-1.244-.956c-.502-.215-1.075-.322-1.718-.322s-1.219.113-1.727.339c-.508.225-.94.541-1.295.948a4.15 4.15 0 0 0-.812 1.464 6.11 6.11 0 0 0-.28 1.904c0 .926.167 1.713.5 2.362a3.31 3.31 0 0 0 1.48 1.473c.656.332 1.457.499 2.405.499.451 0 .849-.025 1.193-.076.344-.051.669-.127.974-.229a6.35 6.35 0 0 0 .914-.39l.118-1.303c-.214.08-.431.159-.652.238-.22.079-.448.149-.685.211-.237.062-.48.107-.728.136a6.594 6.594 0 0 1-.745.042c-.508 0-.948-.048-1.32-.144a2.172 2.172 0 0 1-.94-.491c-.254-.231-.446-.545-.575-.94a4.276 4.276 0 0 1-.184-1.117h6.117c.079-.79.048-1.49-.093-2.099-.141-.61-.375-1.126-.703-1.549Zm-4.266.407c.362-.232.802-.347 1.32-.347.52 0 .977.126 1.304.38.328.254.556.607.686 1.058.085.291.121.61.124.948h-4.452c.042-.378.11-.714.214-.99.175-.468.443-.818.804-1.05Zm11.749-1.651-.204 1.591a3.713 3.713 0 0 0-1.185.127c-.18.051-.358.11-.533.178a4.383 4.383 0 0 0-.922.494v6.396H85.4V9.472l1.727-.254v1.261c.04-.042.079-.087.118-.127.248-.248.514-.46.796-.635a3.33 3.33 0 0 1 .897-.389c.316-.085.66-.116 1.032-.093Zm7.279.237 1.726-.254-.017 8.803h-1.337l-.251-1.044c-.05.042-.099.09-.15.13-.276.225-.564.42-.863.584-.299.163-.612.287-.94.372a4.176 4.176 0 0 1-1.049.127c-.632 0-1.17-.119-1.617-.356-.445-.236-.778-.603-.998-1.1-.22-.496-.33-1.123-.33-1.879V9.472l1.726-.254v5.332c0 .452.065.833.195 1.143.13.31.33.542.6.694.272.152.616.229 1.033.229.226 0 .443-.02.652-.06.209-.04.415-.096.618-.169.203-.073.41-.16.618-.262.127-.062.254-.133.38-.212V9.472h.004Zm10.292-3.978v4.12a.401.401 0 0 1-.051-.023 5.84 5.84 0 0 0-2.15-.39c-.756 0-1.458.186-2.107.559-.649.372-1.171.911-1.566 1.616-.395.706-.593 1.566-.593 2.582 0 .869.15 1.62.449 2.251.299.632.728 1.12 1.286 1.465.559.344 1.228.516 2.006.516.452 0 .878-.056 1.279-.17a4.63 4.63 0 0 0 1.176-.524c.127-.08.254-.166.381-.257l.212.782h1.405V5.257l-1.727.237Zm-.906 11.08c-.446.163-.849.245-1.21.245-.542 0-1.005-.11-1.388-.33-.384-.22-.677-.559-.88-1.016-.204-.457-.305-1.03-.305-1.718 0-.689.113-1.284.338-1.752a2.39 2.39 0 0 1 .974-1.067c.423-.242.928-.364 1.515-.364a5.147 5.147 0 0 1 1.6.245c.081.026.174.063.262.094v5.217a5.578 5.578 0 0 1-.906.445Z"/></g><defs><clipPath id="a"><path fill="#fff" d="M39 5h71v14H39z"/></clipPath></defs></svg>
